art/standard/gamepad/luna/e.svg

<svg width="100px" height="100px" preserveAspectRatio="none" version="1.1" viewBox="0 0 100 100" xmlns="http://www.w3.org/2000/svg">
 <circle cx="50" cy="50" r="40.4" fill="#1b1b1b"/>
 <circle cx="50" cy="50" r="36.4" fill="#313131"/>
 <circle cx="50" cy="50" r="31" fill="#626262"/>
 <circle cx="50" cy="50" r="27" fill="#4f4f4f"/>
 <path d="m55.5 33.55q-2.05-0.3-4.15-0.3h-11.85v31.85h13.05q2.1 0 4.2-0.45 2.15-0.45 3.85-1.5 1.75-1 2.8-2.7 1.1-1.7 1.1-4.2 0-1.55-0.5-2.9t-1.45-2.35q-0.9-1-2.15-1.7-1.3-0.6-2.85-0.85v-0.1q2.45-0.75 3.95-2.5 1.5-1.8 1.5-4.5 0-2.6-1-4.2-1.05-1.55-2.7-2.45-1.65-0.85-3.8-1.15m-9 12.45v-6.85h4.8q0.8 0 1.65 0.2 0.85 0.15 1.5 0.5 0.7 0.35 1.15 1 0.4 0.65 0.4 1.65 0 0.95-0.35 1.65-0.4 0.65-1.05 1.05-0.6 0.45-1.4 0.6-0.8 0.2-1.6 0.2h-5.1m10.55 11.2q-0.45 0.7-1.1 1.15t-1.5 0.65q-0.85 0.15-1.65 0.15h-6.3v-7.25h5.3q0.85 0 1.85 0.15t1.85 0.5 1.4 1.05q0.6 0.7 0.6 1.85 0 1-0.45 1.75z" fill="#c3c3c3"/>
</svg>

<svg xmlns="http://www.w3.org/2000/svg" version="1.1" xmlns:xlink="http://www.w3.org/1999/xlink" preserveAspectRatio="none" x="0px" y="0px" width="100px" height="100px" viewBox="0 0 100 100">
<defs/>

<g id="Luna">
<g>
<g>
<g>
<path fill="#1B1B1B" stroke="none" d="
M 78.55 21.4
L 78.6 21.4
Q 66.8 9.6 50 9.6 33.25 9.6 21.35 21.4 9.55 33.25 9.55 50 9.55 66.75 21.35 78.6
L 21.35 78.65
Q 33.25 90.45 50 90.45 66.75 90.45 78.55 78.65
L 78.6 78.6
Q 90.45 66.75 90.45 50 90.45 33.2 78.55 21.4
M 50 13.6
Q 65.1 13.6 75.75 24.25 86.45 34.9 86.45 50 86.45 65.1 75.75 75.8 65.1 86.45 50 86.45 34.9 86.45 24.2 75.8
L 24.15 75.8
Q 13.55 65.1 13.55 50 13.55 34.9 24.15 24.25
L 24.2 24.2
Q 34.9 13.6 50 13.6 Z"/>

<path fill="#313131" stroke="none" d="
M 75.75 24.25
Q 65.1 13.6 50 13.6 34.9 13.6 24.2 24.2
L 24.15 24.25
Q 13.55 34.9 13.55 50 13.55 65.1 24.15 75.8
L 24.2 75.8
Q 34.9 86.45 50 86.45 65.1 86.45 75.75 75.8 86.45 65.1 86.45 50 86.45 34.9 75.75 24.25
M 71.9 28.05
L 71.95 28.05
Q 81 37.1 81 50 81 62.85 71.95 71.95 62.85 81 50 81 37.1 81 28.05 71.95
L 28.05 71.9
Q 19 62.8 19 50 19 37.15 28.05 28.05 37.15 19 50 19 62.8 19 71.9 28.05 Z"/>

<path fill="#626262" stroke="none" d="
M 71.95 28.05
L 71.9 28.05
Q 62.8 19 50 19 37.15 19 28.05 28.05 19 37.15 19 50 19 62.8 28.05 71.9
L 28.05 71.95
Q 37.1 81 50 81 62.85 81 71.95 71.95 81 62.85 81 50 81 37.1 71.95 28.05
M 50 23
Q 61.2 23 69.1 30.9 77 38.8 77 50 77 61.15 69.1 69.1 61.15 77 50 77 38.8 77 30.9 69.1 23 61.2 23 50 23 38.8 30.85 30.9
L 30.9 30.85
Q 38.8 23 50 23 Z"/>

<path fill="#4F4F4F" stroke="none" d="
M 69.1 30.9
Q 61.2 23 50 23 38.8 23 30.9 30.85
L 30.85 30.9
Q 23 38.8 23 50 23 61.2 30.9 69.1 38.8 77 50 77 61.15 77 69.1 69.1 77 61.15 77 50 77 38.8 69.1 30.9
M 51.35 33.25
Q 53.45 33.25 55.5 33.55 57.65 33.85 59.3 34.7 60.95 35.6 62 37.15 63 38.75 63 41.35 63 44.05 61.5 45.85 60 47.6 57.55 48.35
L 57.55 48.45
Q 59.1 48.7 60.4 49.3 61.65 50 62.55 51 63.5 52 64 53.35 64.5 54.7 64.5 56.25 64.5 58.75 63.4 60.45 62.35 62.15 60.6 63.15 58.9 64.2 56.75 64.65 54.65 65.1 52.55 65.1
L 39.5 65.1 39.5 33.25 51.35 33.25
M 55.95 58.35
Q 56.6 57.9 57.05 57.2 57.5 56.45 57.5 55.45 57.5 54.3 56.9 53.6 56.35 52.9 55.5 52.55 54.65 52.2 53.65 52.05 52.65 51.9 51.8 51.9
L 46.5 51.9 46.5 59.15 52.8 59.15
Q 53.6 59.15 54.45 59 55.3 58.8 55.95 58.35
M 46.5 39.15
L 46.5 46 51.6 46
Q 52.4 46 53.2 45.8 54 45.65 54.6 45.2 55.25 44.8 55.65 44.15 56 43.45 56 42.5 56 41.5 55.6 40.85 55.15 40.2 54.45 39.85 53.8 39.5 52.95 39.35 52.1 39.15 51.3 39.15
L 46.5 39.15 Z"/>

<path fill="#C3C3C3" stroke="none" d="
M 55.5 33.55
Q 53.45 33.25 51.35 33.25
L 39.5 33.25 39.5 65.1 52.55 65.1
Q 54.65 65.1 56.75 64.65 58.9 64.2 60.6 63.15 62.35 62.15 63.4 60.45 64.5 58.75 64.5 56.25 64.5 54.7 64 53.35 63.5 52 62.55 51 61.65 50 60.4 49.3 59.1 48.7 57.55 48.45
L 57.55 48.35
Q 60 47.6 61.5 45.85 63 44.05 63 41.35 63 38.75 62 37.15 60.95 35.6 59.3 34.7 57.65 33.85 55.5 33.55
M 46.5 46
L 46.5 39.15 51.3 39.15
Q 52.1 39.15 52.95 39.35 53.8 39.5 54.45 39.85 55.15 40.2 55.6 40.85 56 41.5 56 42.5 56 43.45 55.65 44.15 55.25 44.8 54.6 45.2 54 45.65 53.2 45.8 52.4 46 51.6 46
L 46.5 46
M 57.05 57.2
Q 56.6 57.9 55.95 58.35 55.3 58.8 54.45 59 53.6 59.15 52.8 59.15
L 46.5 59.15 46.5 51.9 51.8 51.9
Q 52.65 51.9 53.65 52.05 54.65 52.2 55.5 52.55 56.35 52.9 56.9 53.6 57.5 54.3 57.5 55.45 57.5 56.45 57.05 57.2 Z"/>
</g>
</g>
</g>
</g>
</svg>
